icon-themes/sifr_svg/cmd/lc_flowchartshapes.flowchart-stored-data.svg

<svg viewBox="0 0 24 24" xmlns="http://www.w3.org/2000/svg"><g fill="#555753"><path d="m7 3c-3.3137085 0-6 4.0294373-6 9 0 4.970563 2.6862915 9 6 9h16v-2c-2.209139 0-4-3.134007-4-7 0-3.8659932 1.790861-7 4-7v-2zm0 2h12.236328c-1.412419 1.706443-2.234483 4.2796086-2.236328 7 .000416 2.718919.820243 5.291825 2.230469 7h-12.230469c-2.209139 0-4-3.134007-4-7 0-3.8659932 1.790861-7 4-7z"/><path d="m7 5c-2.2030514-.0000294-3.9913943 3.1173455-4 6.972656 0 .0056-.0000036.01008 0 .01563v.011714c.0002242.196794.0091.370204.013672.554688.165281 3.638672 1.9005281 6.444314 3.986328 6.445312h12.230469c-1.410226-1.708175-2.230053-4.281081-2.230469-7 .0018-2.7203914.823909-5.293557 2.236328-7z" opacity=".35"/></g></svg>

<svg xmlns="http://www.w3.org/2000/svg" viewBox="0 0 24 24">
  <path
     style="fill:#555753"
     d="m 7,3 c -3.3137085,0 -6,4.0294373 -6,9 0,4.970563 2.6862915,9 6,9 h 16 v -2 c -2.209139,0 -4,-3.134007 -4,-7 0,-3.8659932 1.790861,-7 4,-7 V 3 Z M 7,5 H 19.236328 C 17.823909,6.706443 17.001845,9.2796086 17,12 c 4.16e-4,2.718919 0.820243,5.291825 2.230469,7 H 7 C 4.790861,19 3,15.865993 3,12 3,8.1340068 4.790861,5 7,5 Z"
     />
  <path
     style="opacity:0.35;fill:#555753"
     d="m 7,5 c -2.2030514,-2.94e-5 -3.9913943,3.1173455 -4,6.972656 0,0.0056 -3.6e-6,0.01008 0,0.01563 V 12 c 2.242e-4,0.196794 0.0091,0.370204 0.013672,0.554688 C 3.178953,16.19336 4.9142001,18.999002 7,19 H 19.230469 C 17.820243,17.291825 17.000416,14.718919 17,12 17.0018,9.2796086 17.823909,6.706443 19.236328,5 Z"
     />
</svg>
